dist/img/home/home_about_bg.svg

<svg width="348" height="228" viewBox="0 0 348 228" fill="none" xmlns="http://www.w3.org/2000/svg">
<path d="M107.62 1.89882e-05L0 0V7.2095C10.9384 10.2735 20.289 22.9052 23.597 28.838L122.395 227.775H130.776L157.681 135.854C140.626 103.186 106.032 34.6056 102.327 25.2332C98.6221 15.8609 104.459 9.31227 107.62 6.75891V1.89882e-05Z" fill="#DAC5B1" fill-opacity="0.05"/>
<path d="M211.049 1.89882e-05H178.411V6.53362C185.644 11.0395 187.894 19.3755 188.114 22.9803H193.186C198.303 13.9684 207.227 8.26089 211.049 6.53362V1.89882e-05Z" fill="#DAC5B1" fill-opacity="0.05"/>
<path d="M348 0.450593H257.361V7.20949C261.919 10.9644 271.034 18.9249 271.034 25.9091C271.034 31.8596 271.328 145.541 271.255 201.64C271.108 205.545 268.123 215.113 257.361 222.142V228H348V222.142C337.238 215.113 334.253 205.545 334.106 201.64C334.033 145.541 334.327 31.8596 334.327 25.9091C334.327 18.9249 343.442 10.9644 348 7.20949V0.450593Z" fill="#DAC5B1" fill-opacity="0.05"/>
</svg>

<svg width="348" height="228" viewBox="0 0 348 228" fill="none" xmlns="http://www.w3.org/2000/svg"><path d="M107.62 0H0v7.21c10.938 3.064 20.289 15.695 23.597 21.628l98.798 198.937h8.381l26.905-91.921c-17.055-32.668-51.649-101.248-55.354-110.62-3.705-9.373 2.132-15.922 5.293-18.475V0zm103.429 0h-32.638v6.534c7.233 4.506 9.483 12.841 9.703 16.446h5.072c5.117-9.012 14.041-14.72 17.863-16.446V0zM348 .45h-90.639v6.76c4.558 3.754 13.673 11.715 13.673 18.7 0 5.95.294 119.631.221 175.73-.147 3.905-3.132 13.473-13.894 20.502V228H348v-5.858c-10.762-7.029-13.747-16.597-13.894-20.502-.073-56.099.221-169.78.221-175.73 0-6.985 9.115-14.946 13.673-18.7V.45z" fill="#DAC5B1" fill-opacity=".05"/></svg>
